src/icons/brand/glyph/YouTubeIcon.svg

<svg width="24" height="24" viewBox="0 0 24 24" fill="none" xmlns="http://www.w3.org/2000/svg">
<path d="M21.5575 7.00037L21.5825 7.16178C21.3408 6.31437 20.6883 5.66048 19.8592 5.42248L19.8417 5.41836C18.2825 5.00001 12.0084 5.00001 12.0084 5.00001C12.0084 5.00001 5.75018 4.99178 4.1752 5.41836C3.3302 5.66048 2.6769 6.31437 2.43941 7.14448L2.43524 7.16178C1.85275 10.1685 1.84858 13.7813 2.46107 17.0005L2.43524 16.8374C2.6769 17.6848 3.3294 18.3387 4.15853 18.5767L4.17603 18.5808C5.73351 19 12.0093 19 12.0093 19C12.0093 19 18.2667 19 19.8425 18.5808C20.6883 18.3387 21.3417 17.6848 21.5792 16.8547L21.5833 16.8374C21.8483 15.4391 22 13.8299 22 12.1861C22 12.126 22 12.0651 21.9992 12.0041C22 11.9481 22 11.8814 22 11.8147C22 10.1701 21.8483 8.56098 21.5575 7.00037ZM10.0068 15.0067V9.0007L15.2284 12.0082L10.0068 15.0067Z" fill="currentColor"/>
</svg>

<svg xmlns="http://www.w3.org/2000/svg" width="24" height="24" fill="currentColor" viewBox="0 0 24 24">
  <path d="m21.558 7 .024.162a2.52 2.52 0 0 0-1.723-1.74l-.017-.004C18.282 5 12.008 5 12.008 5s-6.258-.008-7.833.418A2.521 2.521 0 0 0 2.44 7.144l-.004.018c-.582 3.006-.586 6.62.026 9.838l-.026-.163a2.52 2.52 0 0 0 1.724 1.74l.017.004C5.734 19 12.009 19 12.009 19s6.258 0 7.834-.42a2.521 2.521 0 0 0 1.736-1.725l.004-.018c.265-1.398.417-3.007.417-4.65v-.373c0-1.644-.152-3.253-.442-4.814Zm-11.551 8.007V9l5.221 3.007-5.221 2.999Z"/>
</svg>
